src/22/panel/indicator-keyboard-Tn.svg

<svg viewBox="0 0 22 22" xmlns="http://www.w3.org/2000/svg">
 <path d="m 3 1 c -1.108 0 -2 0.892 -2 2 l 0 16 c 0 1.108 0.892 2 2 2 l 16 0 c 1.108 0 2 -0.892 2 -2 l 0 -16 c 0 -1.108 -0.892 -2 -2 -2 l -16 0 z m 1.107 5.838 l 6.912 0 l 0 1.361 l -2.662 0 l 0 7.301 l -1.588 0 l 0 -7.301 l -2.662 0 l 0 -1.361 z m 10.273 1.986 c 0.533 0 0.98 0.077 1.338 0.227 c 0.358 0.142 0.641 0.345 0.85 0.611 c 0.217 0.258 0.368 0.576 0.451 0.951 c 0.092 0.367 0.137 0.769 0.137 1.211 l 0 3.676 l -1.512 0 l 0 -3.438 c 0 -0.35 -0.026 -0.645 -0.076 -0.887 c -0.042 -0.25 -0.116 -0.452 -0.225 -0.602 c -0.1 -0.158 -0.242 -0.269 -0.426 -0.336 c -0.175 -0.075 -0.39 -0.113 -0.648 -0.113 c -0.192 0 -0.393 0.012 -0.602 0.037 c -0.208 0.025 -0.361 0.046 -0.461 0.063 l 0 5.275 l -1.514 0 l 0 -6.324 c 0.292 -0.083 0.672 -0.163 1.139 -0.238 c 0.467 -0.075 0.982 -0.113 1.549 -0.113 z" style="fill:#ececec;fill-opacity:1"/>
</svg>

<svg viewBox="0 0 22 22" xmlns="http://www.w3.org/2000/svg"><path d="M3 1c-1.108 0-2 .892-2 2v16c0 1.108.892 2 2 2h16c1.108 0 2-.892 2-2V3c0-1.108-.892-2-2-2H3zm1.107 5.838h6.912v1.361H8.357V15.5H6.769V8.199H4.107V6.838zM14.38 8.824c.533 0 .98.077 1.338.227.358.142.641.345.85.611.217.258.368.576.451.951.092.367.137.769.137 1.211V15.5h-1.512v-3.438c0-.35-.026-.645-.076-.887-.042-.25-.116-.452-.225-.602a.818.818 0 0 0-.426-.336 1.643 1.643 0 0 0-.648-.113c-.192 0-.393.012-.602.037a10.45 10.45 0 0 0-.461.063v5.275h-1.514V9.175a10.23 10.23 0 0 1 2.688-.351z" fill="#ececec"/></svg>
